public/images/BNB.svg

<svg width="70" height="70" viewBox="0 0 70 70" fill="none" xmlns="http://www.w3.org/2000/svg">
<path d="M34.9214 69.3561C53.9752 69.3561 69.4214 53.91 69.4214 34.8561C69.4214 15.8023 53.9752 0.35614 34.9214 0.35614C15.8676 0.35614 0.421387 15.8023 0.421387 34.8561C0.421387 53.91 15.8676 69.3561 34.9214 69.3561Z" fill="#F3BA2F"/>
<path d="M26.5465 31.4148L34.9214 23.0399L43.3006 31.4191L48.1737 26.546L34.9214 13.2936L21.6734 26.5416L26.5465 31.4148ZM13.3589 34.8561L18.232 29.983L23.1051 34.8561L18.232 39.7293L13.3589 34.8561ZM26.5465 38.2975L34.9214 46.6724L43.3006 38.2932L48.1737 43.1642L34.9214 56.4186L21.6734 43.1706L21.6669 43.1642L26.5465 38.2975ZM46.7376 34.8561L51.6108 29.983L56.4839 34.8561L51.6108 39.7293L46.7376 34.8561ZM39.8635 34.8518H39.8678V34.8561L34.9214 39.8026L29.9814 34.8648L29.9728 34.8561L29.9814 34.8497L30.8461 33.9829L31.2665 33.5624L34.9214 29.9097L39.8657 34.854L39.8635 34.8518Z" fill="white"/>
</svg>

<svg xmlns="http://www.w3.org/2000/svg" width="70" height="70" fill="none"><path fill="#F3BA2F" d="M34.921 69.356c19.054 0 34.5-15.446 34.5-34.5S53.975.356 34.921.356c-19.053 0-34.5 15.446-34.5 34.5s15.447 34.5 34.5 34.5"/><path fill="#fff" d="m26.547 31.415 8.374-8.375 8.38 8.38 4.873-4.874L34.92 13.294 21.673 26.542zm-13.188 3.441 4.873-4.873 4.873 4.873-4.873 4.873zm13.188 3.441 8.374 8.375 8.38-8.379 4.873 4.871L34.92 56.42 21.673 43.17l-.006-.007zm20.19-3.44 4.874-4.874 4.873 4.873-4.873 4.873zm-6.873-.005h.004v.004l-4.947 4.947-4.94-4.938-.008-.009.008-.006.865-.867.42-.42 3.655-3.653 4.945 4.944z"/></svg>
